svg/l/US.svg

<svg width="32" height="24" viewBox="0 0 32 24" fill="none" xmlns="http://www.w3.org/2000/svg">
<mask id="mask0" mask-type="alpha" maskUnits="userSpaceOnUse" x="0" y="0" width="32" height="24">
<rect width="32" height="24" fill="white"/>
</mask>
<g mask="url(#mask0)">
<path fill-rule="evenodd" clip-rule="evenodd" d="M0 0H32V24H0V0Z" fill="#F7FCFF"/>
<path fill-rule="evenodd" clip-rule="evenodd" d="M0 14.6667V16.6667H32V14.6667H0Z" fill="#E31D1C"/>
<path fill-rule="evenodd" clip-rule="evenodd" d="M0 18.3333V20.3333H32V18.3333H0Z" fill="#E31D1C"/>
<path fill-rule="evenodd" clip-rule="evenodd" d="M0 7.33325V9.33325H32V7.33325H0Z" fill="#E31D1C"/>
<path fill-rule="evenodd" clip-rule="evenodd" d="M0 22V24H32V22H0Z" fill="#E31D1C"/>
<path fill-rule="evenodd" clip-rule="evenodd" d="M0 11V13H32V11H0Z" fill="#E31D1C"/>
<path fill-rule="evenodd" clip-rule="evenodd" d="M0 0V2H32V0H0Z" fill="#E31D1C"/>
<path fill-rule="evenodd" clip-rule="evenodd" d="M0 3.66675V5.66675H32V3.66675H0Z" fill="#E31D1C"/>
<rect width="20" height="13" fill="#2E42A5"/>
<path fill-rule="evenodd" clip-rule="evenodd" d="M1.72197 2.93871L0.996087 3.44759L1.24115 2.54198L0.596436 1.96807H1.43852L1.72095 1.229L2.05212 1.96807H2.76998L2.20594 2.54198L2.4243 3.44759L1.72197 2.93871ZM5.72197 2.93871L4.99609 3.44759L5.24115 2.54198L4.59644 1.96807H5.43852L5.72095 1.229L6.05212 1.96807H6.76998L6.20594 2.54198L6.4243 3.44759L5.72197 2.93871ZM8.99609 3.44759L9.72197 2.93871L10.4243 3.44759L10.2059 2.54198L10.77 1.96807H10.0521L9.72095 1.229L9.43852 1.96807H8.59644L9.24115 2.54198L8.99609 3.44759ZM13.722 2.93871L12.9961 3.44759L13.2412 2.54198L12.5964 1.96807H13.4385L13.721 1.229L14.0521 1.96807H14.77L14.2059 2.54198L14.4243 3.44759L13.722 2.93871ZM0.996087 7.44759L1.72197 6.93871L2.4243 7.44759L2.20594 6.54198L2.76998 5.96807H2.05212L1.72095 5.229L1.43852 5.96807H0.596436L1.24115 6.54198L0.996087 7.44759ZM5.72197 6.93871L4.99609 7.44759L5.24115 6.54198L4.59644 5.96807H5.43852L5.72095 5.229L6.05212 5.96807H6.76998L6.20594 6.54198L6.4243 7.44759L5.72197 6.93871ZM8.99609 7.44759L9.72197 6.93871L10.4243 7.44759L10.2059 6.54198L10.77 5.96807H10.0521L9.72095 5.229L9.43852 5.96807H8.59644L9.24115 6.54198L8.99609 7.44759ZM13.722 6.93871L12.9961 7.44759L13.2412 6.54198L12.5964 5.96807H13.4385L13.721 5.229L14.0521 5.96807H14.77L14.2059 6.54198L14.4243 7.44759L13.722 6.93871ZM0.996087 11.4476L1.72197 10.9387L2.4243 11.4476L2.20594 10.542L2.76998 9.96807H2.05212L1.72095 9.229L1.43852 9.96807H0.596436L1.24115 10.542L0.996087 11.4476ZM5.72197 10.9387L4.99609 11.4476L5.24115 10.542L4.59644 9.96807H5.43852L5.72095 9.229L6.05212 9.96807H6.76998L6.20594 10.542L6.4243 11.4476L5.72197 10.9387ZM8.99609 11.4476L9.72197 10.9387L10.4243 11.4476L10.2059 10.542L10.77 9.96807H10.0521L9.72095 9.229L9.43852 9.96807H8.59644L9.24115 10.542L8.99609 11.4476ZM13.722 10.9387L12.9961 11.4476L13.2412 10.542L12.5964 9.96807H13.4385L13.721 9.229L14.0521 9.96807H14.77L14.2059 10.542L14.4243 11.4476L13.722 10.9387ZM16.9961 3.44759L17.722 2.93871L18.4243 3.44759L18.2059 2.54198L18.77 1.96807H18.0521L17.721 1.229L17.4385 1.96807H16.5964L17.2412 2.54198L16.9961 3.44759ZM17.722 6.93871L16.9961 7.44759L17.2412 6.54198L16.5964 5.96807H17.4385L17.721 5.229L18.0521 5.96807H18.77L18.2059 6.54198L18.4243 7.44759L17.722 6.93871ZM16.9961 11.4476L17.722 10.9387L18.4243 11.4476L18.2059 10.542L18.77 9.96807H18.0521L17.721 9.229L17.4385 9.96807H16.5964L17.2412 10.542L16.9961 11.4476ZM3.72197 4.93871L2.99609 5.44759L3.24115 4.54198L2.59644 3.96807H3.43852L3.72095 3.229L4.05212 3.96807H4.76998L4.20594 4.54198L4.4243 5.44759L3.72197 4.93871ZM6.99609 5.44759L7.72197 4.93871L8.4243 5.44759L8.20594 4.54198L8.76998 3.96807H8.05212L7.72095 3.229L7.43852 3.96807H6.59644L7.24115 4.54198L6.99609 5.44759ZM11.722 4.93871L10.9961 5.44759L11.2412 4.54198L10.5964 3.96807H11.4385L11.721 3.229L12.0521 3.96807H12.77L12.2059 4.54198L12.4243 5.44759L11.722 4.93871ZM2.99609 9.44759L3.72197 8.93871L4.4243 9.44759L4.20594 8.54198L4.76998 7.96807H4.05212L3.72095 7.229L3.43852 7.96807H2.59644L3.24115 8.54198L2.99609 9.44759ZM7.72197 8.93871L6.99609 9.44759L7.24115 8.54198L6.59644 7.96807H7.43852L7.72095 7.229L8.05212 7.96807H8.76998L8.20594 8.54198L8.4243 9.44759L7.72197 8.93871ZM10.9961 9.44759L11.722 8.93871L12.4243 9.44759L12.2059 8.54198L12.77 7.96807H12.0521L11.721 7.229L11.4385 7.96807H10.5964L11.2412 8.54198L10.9961 9.44759ZM15.722 4.93871L14.9961 5.44759L15.2412 4.54198L14.5964 3.96807H15.4385L15.721 3.229L16.0521 3.96807H16.77L16.2059 4.54198L16.4243 5.44759L15.722 4.93871ZM14.9961 9.44759L15.722 8.93871L16.4243 9.44759L16.2059 8.54198L16.77 7.96807H16.0521L15.721 7.229L15.4385 7.96807H14.5964L15.2412 8.54198L14.9961 9.44759Z" fill="#F7FCFF"/>
</g>
</svg>

<svg width="32" height="24" fill="none" xmlns="http://www.w3.org/2000/svg">
  <mask id="a" maskUnits="userSpaceOnUse" x="0" y="0" width="32" height="24">
    <path fill="#fff" d="M0 0h32v24H0z"/>
  </mask>
  <g mask="url(#a)">
    <path fill-rule="evenodd" clip-rule="evenodd" d="M0 0h32v24H0V0z" fill="#F7FCFF"/>
    <path fill-rule="evenodd" clip-rule="evenodd" d="M0 14.667v2h32v-2H0zm0 3.666v2h32v-2H0zm0-11v2h32v-2H0zM0 22v2h32v-2H0zm0-11v2h32v-2H0zM0 0v2h32V0H0zm0 3.667v2h32v-2H0z" fill="#E31D1C"/>
    <path fill="#2E42A5" d="M0 0h20v13H0z"/>
    <path fill-rule="evenodd" clip-rule="evenodd" d="M1.722 2.939l-.726.509.245-.906-.645-.574h.843l.282-.74.331.74h.718l-.564.574.218.906-.702-.51zm4 0l-.726.509.245-.906-.644-.574h.842l.282-.74.331.74h.718l-.564.574.218.906-.702-.51zm3.274.509l.726-.51.702.51-.218-.906.564-.574h-.718l-.331-.74-.282.74h-.842l.644.574-.245.906zm4.726-.51l-.726.51.245-.906-.644-.574h.842l.282-.74.331.74h.718l-.564.574.218.906-.702-.51zM.996 7.449l.726-.51.702.51-.218-.906.564-.574h-.718l-.331-.74-.282.74H.596l.645.574-.245.906zm4.726-.51l-.726.51.245-.906-.644-.574h.842l.282-.74.331.74h.718l-.564.574.218.906-.702-.51zm3.274.51l.726-.51.702.51-.218-.906.564-.574h-.718l-.331-.74-.282.74h-.842l.644.574-.245.906zm4.726-.51l-.726.51.245-.906-.644-.574h.842l.282-.74.331.74h.718l-.564.574.218.906-.702-.51zM.996 11.449l.726-.51.702.51-.218-.906.564-.574h-.718l-.331-.74-.282.74H.596l.645.574-.245.905zm4.726-.51l-.726.51.245-.906-.644-.574h.842l.282-.74.331.74h.718l-.564.574.218.905-.702-.508zm3.274.51l.726-.51.702.51-.218-.906.564-.574h-.718l-.331-.74-.282.74h-.842l.644.574-.245.905zm4.726-.51l-.726.51.245-.906-.644-.574h.842l.282-.74.331.74h.718l-.564.574.218.905-.702-.508zm3.274-7.49l.726-.51.702.51-.218-.906.564-.574h-.718l-.331-.74-.282.74h-.843l.645.574-.245.906zm.726 3.49l-.726.51.245-.906-.645-.574h.843l.282-.74.331.74h.718l-.564.574.218.906-.702-.51zm-.726 4.51l.726-.51.702.51-.218-.906.564-.574h-.718l-.331-.74-.282.74h-.843l.645.574-.245.905zM3.722 4.938l-.726.51.245-.906-.645-.574h.843l.282-.74.331.74h.718l-.564.574.218.906-.702-.51zm3.274.51l.726-.51.702.51-.218-.906.564-.574h-.718l-.331-.74-.282.74h-.843l.645.574-.245.906zm4.726-.51l-.726.51.245-.906-.644-.574h.842l.282-.74.331.74h.718l-.564.574.218.906-.702-.51zm-8.726 4.51l.726-.51.702.51-.218-.906.564-.574h-.718l-.331-.74-.282.74h-.843l.645.574-.245.906zm4.726-.51l-.726.51.245-.906-.644-.574h.842l.282-.74.331.74h.718l-.564.574.218.906-.702-.51zm3.274.51l.726-.51.702.51-.218-.906.564-.574h-.718l-.331-.74-.282.74h-.842l.644.574-.245.906zm4.726-4.51l-.726.51.245-.906-.644-.574h.842l.282-.74.331.74h.718l-.564.574.218.906-.702-.51zm-.726 4.51l.726-.51.702.51-.218-.906.564-.574h-.718l-.331-.74-.282.74h-.842l.644.574-.245.906z" fill="#F7FCFF"/>
  </g>
</svg>
